upholstery/frontseat_back.blend_page9.svg

<?xml version='1.0' encoding='UTF-8' standalone='no'?>
    <svg xmlns='http://www.w3.org/2000/svg' xmlns:xlink='http://www.w3.org/1999/xlink' version='1.1'
    width='300.00mm' height='600.00mm' viewBox='0 0 300.00 600.00'>
<style type="text/css">
    path {
        fill: none;
        stroke-linecap: butt;
        stroke-linejoin: bevel;
        stroke-dasharray: none;
    }
    path.outer {
        stroke: #000000;
        stroke-dasharray: none;
        stroke-dashoffset: 0;
        stroke-width: 0.3;
        stroke-opacity: 1.0;
    }
    path.convex {
        stroke: #000000;
        stroke-dasharray: 0.50,1.00;
        stroke-dashoffset:0;
        stroke-width:0.2;
        stroke-opacity: 1.0
    }
    path.concave {
        stroke: #000000;
        stroke-dasharray: 1.00,0.50,0.20,0.50;
        stroke-dashoffset: 0;
        stroke-width: 0.2;
        stroke-opacity: 1.0
    }
    path.freestyle {
        stroke: #000000;
        stroke-dasharray: none;
        stroke-dashoffset: 0;
        stroke-width: 0.2;
        stroke-opacity: 1.0
    }
    path.outer_background {
        stroke: #ffffff;
        stroke-opacity: 1.0;
        stroke-width: 0.5
    }
    path.inner_background {
        stroke: #ffffff;
        stroke-opacity: 1.0;
        stroke-width: 0.2
    }
    path.sticker {
        fill: #e5e5e5;
        stroke: none;
        fill-opacity: 1.0;
    }
    path.arrow {
        fill: #000000;
    }
    text {
        font-style: normal;
        fill: #000000;
        fill-opacity: 1.0;
        stroke: none;
    }
    text, tspan {
        text-anchor:middle;
    }
    </style>
<g>
<g>
<text transform='translate(89.79715872555971 217.99998451024294)' style='font-size:10.00'><tspan>[2] I 2</tspan></text>
<path class='sticker' d=' M 15.000030 451.871957 L 5.000031 451.714869 L 5.000001 376.157145 L 15.000001 376.000042 Z
M 15.000060 544.113207 L 5.000060 543.956119 L 5.000060 522.407125 L 15.000060 522.250029 Z
M 80.280346 571.000014 L 80.123258 581.000014 L 15.157155 581.000029 L 15.000060 571.000029 Z
M 159.048160 562.702644 L 160.951351 572.521127 L 121.782531 580.753870 L 119.571877 571.000014 Z
M 15.000060 522.250029 L 5.000060 522.092941 L 5.000031 452.029060 L 15.000030 451.871957 Z
M 15.000060 571.000029 L 5.000060 570.842938 L 5.000060 544.270302 L 15.000060 544.113207 Z
M 163.449307 522.249999 L 173.411046 523.137907 L 171.831016 544.687743 L 161.846300 544.113177 Z
M 164.594312 376.000012 L 174.594318 376.157100 L 174.594318 451.714839 L 164.594312 451.871942 Z
M 164.594312 451.871942 L 174.590428 452.191676 L 173.450534 522.255602 L 163.449307 522.249999 Z
M 161.846300 544.113177 L 171.119054 545.658263 L 170.193632 551.806292 L 159.048160 562.702644 Z
M 119.571877 571.000014 L 119.414781 581.000014 L 80.437441 581.000014 L 80.280346 571.000014 Z
M 15.000001 376.000042 L 5.000001 375.842939 L 5.000031 300.285186 L 15.000030 300.128098 Z
M 15.000001 229.750033 L 5.000001 229.592944 L 5.000001 208.043958 L 15.000001 207.886870 Z
M 15.000001 181.000049 L 15.157093 171.000059 L 80.123191 171.000059 L 80.280286 181.000049 Z
M 119.571877 181.000049 L 121.782516 171.246196 L 160.951336 179.478879 L 159.048160 189.297373 Z
M 15.000030 300.128098 L 5.000030 299.971010 L 5.000000 229.907121 L 15.000001 229.750033 Z
M 15.000001 207.886870 L 5.000001 207.729782 L 5.000001 181.157137 L 15.000001 181.000049 Z
M 161.846300 207.886840 L 171.831016 207.312281 L 173.411046 228.862132 L 163.449307 229.750033 Z
M 164.594312 300.128098 L 174.594318 300.285186 L 174.594318 375.842924 L 164.594312 376.000012 Z
M 163.449307 229.750033 L 173.450534 229.744430 L 174.590428 299.808349 L 164.594312 300.128098 Z
M 159.048160 189.297373 L 170.193632 200.193728 L 171.119054 206.341769 L 161.846300 207.886840 Z
M 80.280286 181.000049 L 80.437382 171.000059 L 119.414781 171.000059 L 119.571877 181.000049 Z '/>
<path class='outer' d=' M 5.000030 299.971010 L 5.000000 229.907121 L 15.000001 229.750033 L 5.000001 229.592944 L 5.000001 208.043958 L 15.000001 207.886870 L 5.000001 207.729782 L 5.000001 181.157137 L 15.000001 181.000049 L 15.157093 171.000059 L 80.123191 171.000059 L 80.280286 181.000049 L 80.437382 171.000059 L 119.414781 171.000059 L 119.571877 181.000049 L 121.782516 171.246196 L 160.951336 179.478879 L 159.048160 189.297373 L 170.193632 200.193728 L 171.119054 206.341769 L 161.846300 207.886840 L 171.831016 207.312281 L 173.411046 228.862132 L 163.449307 229.750033 L 173.450534 229.744430 L 174.590428 299.808349 L 164.594312 300.128098 L 174.594318 300.285186 L 174.594318 375.842924 L 164.594312 376.000012 L 174.594318 376.157100 L 174.594318 451.714839 L 164.594312 451.871942 L 174.590428 452.191676 L 173.450534 522.255602 L 163.449307 522.249999 L 173.411046 523.137907 L 171.831016 544.687743 L 161.846300 544.113177 L 171.119054 545.658263 L 170.193632 551.806292 L 159.048160 562.702644 L 160.951351 572.521127 L 121.782531 580.753870 L 119.571877 571.000014 L 119.414781 581.000014 L 80.437441 581.000014 L 80.280346 571.000014 L 80.123258 581.000014 L 15.157155 581.000029 L 15.000060 571.000029 L 5.000060 570.842938 L 5.000060 544.270302 L 15.000060 544.113207 L 5.000060 543.956119 L 5.000060 522.407125 L 15.000060 522.250029 L 5.000060 522.092941 L 5.000031 452.029060 L 15.000030 451.871957 L 5.000031 451.714869 L 5.000001 376.157145 L 15.000001 376.000042 L 5.000001 375.842939 L 5.000031 300.285186 L 15.000030 300.128098 Z '/>
<g><path transform='matrix(-10.000000 0.000002 -0.000002 -10.000000 47.640205 571.000022)' class='arrow' d='M 0 0 L 1 1 L 0 0.25 L -1 1 Z'/><text transform='translate(47.640202 566.000025)' style='font-size:10.00'><tspan>1</tspan></text></g>
<text transform='matrix(-1.000000 0.000000 -0.000000 -1.000000 47.640205 572.800023)' style='font-size:9.00'><tspan>5:1</tspan></text>
<text transform='matrix(-0.978617 0.205692 -0.205692 -0.978617 139.680256 568.612841)' style='font-size:9.00'><tspan>5:1</tspan></text>
<text transform='matrix(0.000000 -1.000000 1.000000 0.000000 13.200060 557.556617)' style='font-size:9.00'><tspan>6.:3</tspan></text>
<g><path transform='matrix(-1.488461 9.888604 -9.888604 -1.488461 160.447230 553.407910)' class='arrow' d='M 0 0 L 1 1 L 0 0.25 L -1 1 Z'/><text transform='translate(151.547481 556.068297)' style='font-size:10.00'><tspan>2</tspan></text></g>
<text transform='matrix(-0.148846 0.988860 -0.988860 -0.148846 162.120287 553.659747)' style='font-size:8.46'><tspan>3:2</tspan></text>
<g><path transform='matrix(10.000000 0.000000 0.000000 10.000000 47.640146 181.000049)' class='arrow' d='M 0 0 L 1 1 L 0 0.25 L -1 1 Z'/><text transform='translate(47.640146 194.000061)' style='font-size:10.00'><tspan>3</tspan></text></g>
<text transform='matrix(1.000000 0.000000 0.000000 1.000000 47.640146 179.200049)' style='font-size:9.00'><tspan>4:3</tspan></text>
<text transform='matrix(0.978617 0.205691 -0.205691 0.978617 139.680256 183.387215)' style='font-size:9.00'><tspan>4:1</tspan></text>
<text transform='matrix(0.000000 -1.000000 1.000000 0.000000 13.200001 194.443460)' style='font-size:9.00'><tspan>6.:6.</tspan></text>
<g><path transform='matrix(1.488461 9.888604 -9.888604 1.488461 160.447230 198.592122)' class='arrow' d='M 0 0 L 1 1 L 0 0.25 L -1 1 Z'/><text transform='translate(151.547481 203.931744)' style='font-size:10.00'><tspan>4</tspan></text></g>
<text transform='matrix(0.148846 0.988860 -0.988860 0.148846 162.120287 198.340292)' style='font-size:8.46'><tspan>3:4</tspan></text>
</g>
<g>
<text transform='translate(227.85949055105448 109.86192990094423)' style='font-size:10.00'><tspan>[11] I 11</tspan></text>
<path class='sticker' d=' M 194.034432 558.417763 L 184.502442 561.445284 L 175.162126 533.563557 L 184.594323 530.238117 Z
M 222.266142 573.000024 L 217.537408 581.812720 L 189.584826 567.374646 L 194.034432 558.417763 Z
M 262.091463 484.138089 L 272.038703 483.100186 L 281.124656 558.660216 L 271.214937 560.010067 Z
M 184.594323 530.238117 L 174.594318 530.081029 L 174.594332 484.295192 L 184.594338 484.138104 Z
M 246.464823 573.000024 L 246.307720 583.000024 L 222.423245 583.000024 L 222.266142 573.000024 Z
M 271.214937 560.010067 L 275.723104 568.937619 L 251.251166 581.781565 L 246.464823 573.000024 Z
M 184.594338 438.038091 L 175.162141 434.712659 L 184.502398 406.830902 L 194.034402 409.858416 Z
M 194.034402 409.858416 L 189.584796 400.901536 L 217.537378 386.463474 L 222.266127 395.276169 Z
M 271.214937 408.266093 L 281.124656 409.615929 L 272.038703 485.176015 L 262.091463 484.138089 Z
M 184.594338 484.138104 L 174.594332 483.981009 L 174.594332 438.195179 L 184.594338 438.038091 Z
M 222.266127 395.276169 L 222.423200 385.276179 L 246.307676 385.276164 L 246.464779 395.276154 Z
M 246.464779 395.276154 L 251.251136 386.494617 L 275.723104 399.338539 L 271.214937 408.266093 Z '/>
<path class='outer' d=' M 222.423200 385.276179 L 246.307676 385.276164 L 246.464779 395.276154 L 251.251136 386.494617 L 275.723104 399.338539 L 271.214937 408.266093 L 281.124656 409.615929 L 272.038703 485.176015 L 262.091463 484.138089 L 272.038703 483.100186 L 281.124656 558.660216 L 271.214937 560.010067 L 275.723104 568.937619 L 251.251166 581.781565 L 246.464823 573.000024 L 246.307720 583.000024 L 222.423245 583.000024 L 222.266142 573.000024 L 217.537408 581.812720 L 189.584826 567.374646 L 194.034432 558.417763 L 184.502442 561.445284 L 175.162126 533.563557 L 184.594323 530.238117 L 174.594318 530.081029 L 174.594332 484.295192 L 184.594338 484.138104 L 174.594332 483.981009 L 174.594332 438.195179 L 184.594338 438.038091 L 175.162141 434.712659 L 184.502398 406.830902 L 194.034402 409.858416 L 189.584796 400.901536 L 217.537378 386.463474 L 222.266127 395.276169 Z '/>
<text transform='matrix(0.119388 0.992848 -0.992848 0.119388 268.440341 521.859187)' style='font-size:9.00'><tspan>20:2</tspan></text>
<text transform='matrix(-1.000000 -0.000000 0.000000 -1.000000 234.365483 574.800025)' style='font-size:9.00'><tspan>1:4</tspan></text>
<text transform='matrix(-0.885455 0.464726 -0.464726 -0.885455 259.676402 568.098865)' style='font-size:9.00'><tspan>10:6.</tspan></text>
<text transform='matrix(-0.119388 0.992848 -0.992848 -0.119388 268.440341 446.416999)' style='font-size:9.00'><tspan>20:4</tspan></text>
<text transform='matrix(1.000000 -0.000001 0.000001 1.000000 234.365438 393.476154)' style='font-size:9.00'><tspan>1:10</tspan></text>
<text transform='matrix(0.885455 0.464725 -0.464725 0.885455 259.676342 400.177310)' style='font-size:9.00'><tspan>9.:6.</tspan></text>
</g>
</g>
</svg>

<?xml version="1.0" encoding="UTF-8" standalone="no"?>
<svg
   version="1.1"
   width="300.00mm"
   height="600.00mm"
   viewBox="0 0 300.00 600.00"
   id="svg2581"
   sodipodi:docname="frontseat_back.blend_page9.svg"
   inkscape:version="1.1.1 (c3084ef, 2021-09-22)"
   xmlns:inkscape="http://www.inkscape.org/namespaces/inkscape"
   xmlns:sodipodi="http://sodipodi.sourceforge.net/DTD/sodipodi-0.dtd"
   xmlns="http://www.w3.org/2000/svg"
   xmlns:svg="http://www.w3.org/2000/svg">
  <defs
     id="defs2585" />
  <sodipodi:namedview
     id="namedview2583"
     pagecolor="#ffffff"
     bordercolor="#666666"
     borderopacity="1.0"
     inkscape:pageshadow="2"
     inkscape:pageopacity="0.0"
     inkscape:pagecheckerboard="0"
     inkscape:document-units="mm"
     showgrid="false"
     inkscape:zoom="0.35057292"
     inkscape:cx="566.21602"
     inkscape:cy="1133.8583"
     inkscape:window-width="1296"
     inkscape:window-height="975"
     inkscape:window-x="0"
     inkscape:window-y="25"
     inkscape:window-maximized="0"
     inkscape:current-layer="svg2581" />
  <style
     type="text/css"
     id="style2469">
    path {
        fill: none;
        stroke-linecap: butt;
        stroke-linejoin: bevel;
        stroke-dasharray: none;
    }
    path.outer {
        stroke: #000000;
        stroke-dasharray: none;
        stroke-dashoffset: 0;
        stroke-width: 0.3;
        stroke-opacity: 1.0;
    }
    path.convex {
        stroke: #000000;
        stroke-dasharray: 0.50,1.00;
        stroke-dashoffset:0;
        stroke-width:0.2;
        stroke-opacity: 1.0
    }
    path.concave {
        stroke: #000000;
        stroke-dasharray: 1.00,0.50,0.20,0.50;
        stroke-dashoffset: 0;
        stroke-width: 0.2;
        stroke-opacity: 1.0
    }
    path.freestyle {
        stroke: #000000;
        stroke-dasharray: none;
        stroke-dashoffset: 0;
        stroke-width: 0.2;
        stroke-opacity: 1.0
    }
    path.outer_background {
        stroke: #ffffff;
        stroke-opacity: 1.0;
        stroke-width: 0.5
    }
    path.inner_background {
        stroke: #ffffff;
        stroke-opacity: 1.0;
        stroke-width: 0.2
    }
    path.sticker {
        fill: #e5e5e5;
        stroke: none;
        fill-opacity: 1.0;
    }
    path.arrow {
        fill: #000000;
    }
    text {
        font-style: normal;
        fill: #000000;
        fill-opacity: 1.0;
        stroke: none;
    }
    text, tspan {
        text-anchor:middle;
    }
    </style>
  <g
     id="g2543">
    <text
       transform="translate(89.797159,217.99998)"
       style="font-size:10px"
       id="text2473"><tspan
         id="tspan2471">[2] I 2</tspan></text>
    <path
       class="sticker"
       d="m 15.00003,451.87196 -9.999999,-0.15709 -3e-5,-75.55772 10,-0.15711 z m 3e-5,92.24125 -10,-0.15709 v -21.549 l 10,-0.15709 z m 65.280286,26.8868 -0.157088,10 -64.966103,2e-5 -0.157095,-10 z m 78.767814,-8.29737 1.90319,9.81849 -39.16882,8.23274 -2.21065,-9.75386 z m -144.0481,-40.45261 -10,-0.15709 -2.9e-5,-70.06388 9.999999,-0.1571 z m 0,48.75 -10,-0.15709 V 544.2703 l 10,-0.15709 z M 163.44931,522.25 l 9.96174,0.88791 -1.58003,21.54983 -9.98472,-0.57456 z m 1.145,-146.24999 10.00001,0.15709 v 75.55774 l -10.00001,0.1571 z m 0,75.87193 9.99612,0.31974 -1.1399,70.06392 -10.00122,-0.006 z m -2.74801,92.24124 9.27275,1.54508 -0.92542,6.14803 -11.14547,10.89635 z m -42.27442,26.88683 -0.1571,10 H 80.437441 l -0.157095,-10 z M 15.000001,376.00004 l -10,-0.1571 3e-5,-75.55775 9.999999,-0.15709 z m 0,-146.25001 -10,-0.15709 v -21.54898 l 10,-0.15709 z m 0,-48.74998 0.157092,-9.99999 h 64.966098 l 0.157095,9.99999 z m 104.571879,0 2.21064,-9.75385 39.16882,8.23268 -1.90318,9.81849 z M 15.00003,300.1281 l -10,-0.15709 L 5,229.90712 15.000001,229.75003 Z m -2.9e-5,-92.24123 -10,-0.15709 v -26.57264 l 10,-0.15709 z m 146.846299,-3e-5 9.98472,-0.57456 1.58003,21.54985 -9.96174,0.8879 z m 2.74801,92.24126 10.00001,0.15709 v 75.55773 l -10.00001,0.15709 z m -1.145,-70.37807 10.00122,-0.006 1.1399,70.06392 -9.99612,0.31975 z m -4.40115,-40.45266 11.14547,10.89636 0.92542,6.14804 -9.27275,1.54507 z m -78.767874,-8.29732 0.157096,-9.99999 h 38.977398 l 0.1571,9.99999 z"
       id="path2475" />
    <path
       class="outer"
       d="M 5.00003,299.97101 5,229.90712 l 10.000001,-0.15709 -10,-0.15709 v -21.54898 l 10,-0.15709 -10,-0.15709 v -26.57264 l 10,-0.15709 0.157092,-9.99999 h 64.966098 l 0.157095,9.99999 0.157096,-9.99999 h 38.977398 l 0.1571,9.99999 2.21064,-9.75385 39.16882,8.23268 -1.90318,9.81849 11.14547,10.89636 0.92542,6.14804 -9.27275,1.54507 9.98472,-0.57456 1.58003,21.54985 -9.96174,0.8879 10.00122,-0.006 1.1399,70.06392 -9.99612,0.31975 10.00001,0.15709 v 75.55773 l -10.00001,0.15709 10.00001,0.15709 v 75.55774 l -10.00001,0.1571 9.99612,0.31974 -1.1399,70.06392 -10.00122,-0.006 9.96174,0.88791 -1.58003,21.54983 -9.98472,-0.57456 9.27275,1.54508 -0.92542,6.14803 -11.14547,10.89635 1.90319,9.81849 -39.16882,8.23274 -2.21065,-9.75386 -0.1571,10 H 80.437441 l -0.157095,-10 -0.157088,10 -64.966103,2e-5 -0.157095,-10 -10,-0.15709 V 544.2703 l 10,-0.15709 -10,-0.15709 v -21.549 l 10,-0.15709 -10,-0.15709 -2.9e-5,-70.06388 9.999999,-0.1571 -9.999999,-0.15709 -3e-5,-75.55772 10,-0.15711 -10,-0.1571 3e-5,-75.55775 9.999999,-0.15709 z"
       id="path2477" />
    <g
       id="g2485">
      <path
         transform="matrix(-10,2e-6,-2e-6,-10,47.640205,571.00002)"
         class="arrow"
         d="M 0,0 1,1 0,0.25 -1,1 Z"
         id="path2479" />
      <text
         transform="translate(47.640202,566.00003)"
         style="font-size:10px"
         id="text2483"><tspan
           id="tspan2481">1</tspan></text>
    </g>
    <text
       transform="rotate(180,23.820102,286.40001)"
       style="font-size:9px"
       id="text2489"><tspan
         id="tspan2487">5:1</tspan></text>
    <text
       transform="rotate(168.12999,40.28435,291.56679)"
       style="font-size:9px"
       id="text2493"><tspan
         id="tspan2491">5:1</tspan></text>
    <text
       transform="rotate(-90,285.37834,272.17828)"
       style="font-size:9px"
       id="text2497"><tspan
         id="tspan2495">6.:3</tspan></text>
    <g
       id="g2505">
      <path
         transform="matrix(-1.488461,9.888604,-9.888604,-1.488461,160.44723,553.40791)"
         class="arrow"
         d="M 0,0 1,1 0,0.25 -1,1 Z"
         id="path2499" />
      <text
         transform="translate(151.54748,556.0683)"
         style="font-size:10px"
         id="text2503"><tspan
           id="tspan2501">2</tspan></text>
    </g>
    <text
       transform="rotate(98.56006,-157.21901,346.60186)"
       style="font-size:8.46px"
       id="text2509"><tspan
         id="tspan2507">3:2</tspan></text>
    <g
       id="g2517">
      <path
         transform="matrix(10,0,0,10,47.640146,181.00005)"
         class="arrow"
         d="M 0,0 1,1 0,0.25 -1,1 Z"
         id="path2511" />
      <text
         transform="translate(47.640146,194.00006)"
         style="font-size:10px"
         id="text2515"><tspan
           id="tspan2513">3</tspan></text>
    </g>
    <text
       transform="translate(47.640146,179.20005)"
       style="font-size:9px"
       id="text2521"><tspan
         id="tspan2519">4:3</tspan></text>
    <text
       transform="rotate(11.869952,-812.19427,763.51132)"
       style="font-size:9px"
       id="text2525"><tspan
         id="tspan2523">4:1</tspan></text>
    <text
       transform="rotate(-90,103.82173,90.621729)"
       style="font-size:9px"
       id="text2529"><tspan
         id="tspan2527">6.:6.</tspan></text>
    <g
       id="g2537">
      <path
         transform="matrix(1.488461,9.888604,-9.888604,1.488461,160.44723,198.59212)"
         class="arrow"
         d="M 0,0 1,1 0,0.25 -1,1 Z"
         id="path2531" />
      <text
         transform="translate(151.54748,203.93174)"
         style="font-size:10px"
         id="text2535"><tspan
           id="tspan2533">4</tspan></text>
    </g>
    <text
       transform="rotate(81.43994,-34.154499,193.34489)"
       style="font-size:8.46px"
       id="text2541"><tspan
         id="tspan2539">3:4</tspan></text>
  </g>
  <text
     style="font-size:10px"
     id="text2547"
     x="236.91611"
     y="422.31476"><tspan
       id="tspan2545">[11] I 11</tspan></text>
  <path
     class="sticker"
     d="m 194.03443,558.41776 -9.53199,3.02752 -9.34031,-27.88172 9.43219,-3.32544 z m 28.23171,14.58226 -4.72873,8.8127 -27.95258,-14.43807 4.4496,-8.95689 z m 39.82532,-88.86193 9.94724,-1.0379 9.08596,75.56003 -9.90972,1.34985 z m -77.49714,46.10003 -10,-0.15709 1e-5,-45.78584 10.00001,-0.15709 z m 61.8705,42.7619 -0.1571,10 h -23.88448 l -0.1571,-10 z m 24.75012,-12.98995 4.50816,8.92755 -24.47193,12.84394 -4.78635,-8.78154 z m -86.6206,-121.97198 -9.4322,-3.32543 9.34026,-27.88176 9.532,3.02752 z m 9.44006,-28.17967 -4.4496,-8.95688 27.95258,-14.43807 4.72875,8.8127 z m 77.18054,-1.59233 9.90972,1.34984 -9.08596,75.56008 -9.94724,-1.03792 z m -86.6206,75.87201 -10.00001,-0.15709 v -45.78583 l 10.00001,-0.15709 z m 37.67179,-88.86193 0.15707,-9.99999 23.88448,-2e-5 0.1571,9.99999 z m 24.19865,-2e-5 4.78636,-8.78153 24.47196,12.84392 -4.50816,8.92755 z"
     id="path2549" />
  <path
     class="outer"
     d="m 222.4232,385.27618 23.88448,-2e-5 0.1571,9.99999 4.78636,-8.78153 24.47196,12.84392 -4.50816,8.92755 9.90972,1.34984 -9.08596,75.56008 -9.94724,-1.03792 9.94724,-1.0379 9.08596,75.56003 -9.90972,1.34985 4.50816,8.92755 -24.47193,12.84394 -4.78635,-8.78154 -0.1571,10 h -23.88448 l -0.1571,-10 -4.72873,8.8127 -27.95258,-14.43807 4.4496,-8.95689 -9.53199,3.02752 -9.34031,-27.88172 9.43219,-3.32544 -10,-0.15709 1e-5,-45.78584 10.00001,-0.15709 -10.00001,-0.15709 v -45.78583 l 10.00001,-0.15709 -9.4322,-3.32543 9.34026,-27.88176 9.532,3.02752 -4.4496,-8.95688 27.95258,-14.43807 4.72875,8.8127 z"
     id="path2551" />
  <text
     transform="rotate(83.143219)"
     style="font-size:9px"
     id="text2555"
     x="550.17517"
     y="-204.21654"><tspan
       id="tspan2553">20:2</tspan></text>
  <text
     transform="scale(-1)"
     style="font-size:9px"
     id="text2559"
     x="-234.36548"
     y="-574.80005"><tspan
       id="tspan2557">1:4</tspan></text>
  <text
     transform="rotate(152.30752)"
     style="font-size:9px"
     id="text2563"
     x="34.078564"
     y="-623.70398"><tspan
       id="tspan2561">10:6.</tspan></text>
  <text
     transform="rotate(96.856781)"
     style="font-size:9px"
     id="text2567"
     x="411.17551"
     y="-319.81708"><tspan
       id="tspan2565">20:4</tspan></text>
  <text
     style="font-size:9px"
     id="text2571"
     x="234.36543"
     y="393.47614"><tspan
       id="tspan2569">1:10</tspan></text>
  <text
     transform="rotate(27.692428)"
     style="font-size:9px"
     id="text2575"
     x="415.90417"
     y="233.66089"><tspan
       id="tspan2573">9.:6.</tspan></text>
</svg>
